X: 2
T: The Connaughtman's Rambles
R: jig
M: 6/8
L: 1/8
K: Dmaj
G|:FA,A, DA,A,|FA,A, DEG|FA,A, DFE|DB,B, B,A,B,|FA,A, DA,A,|FA,A, DEG|FA,A, DFE|1DB,B, B,2A,/G/:|2DB,B, B,2||G|:FBB FAA|FEF DEG|FBB FAA|FED EDE|FBB FAA|FEF DEF|GFE DFE|DB,B,B,2:|


Tune 19	Setting 12391

